X:13534
T:Portsmouth Hornpipe
M:2/4
L:1/16
K:A
E2|AcBc AFEF|Acea f2fg|agfe fecA|BcBA F2E2|!
AcBc AFEF|Acea f2fg|agfe fecA|B2A2 A2:|!
|:cd|eaga fece|faga f2fg|agfe fecA|BcBA F2E2|!
AcBc AFEF|Acea f2fg|agfe fecA|B2A2 A2:|!
